X: 11
T: New Alman
T: for couples
P: ABB
C: Bernard Schmid (c. 1577)
K: C major
M: 4/4
L: 1/8
P: A
"C"c4 c2"G"B2 | "C"c4 z2"G"B2 | "Am"A2"C"G2 "G"G2"D"^F2 | "G"G4 z2G2 |\
 "C"cB"Dm"AG "Am"ABcA | "G"B2"Am"AB cB"D"AG |
"D"AG^FE FEF2 | "G"G4 z2"Dm"AB |: \
P: B
"C"c2A2 "G"G2EF | "G"G4 z2G2 | "Dm"FEFG A2"C"EF | "G"G4 z2"Am"AB | 
"Am"c2A2 "G"G2EF | "C"G4 z2"Dm"F2 | "C"EDC2 C2"G"B,2 |  [1 "C"C4 z2"Dm"AB :|]  [2 "C"C8 :| 

